www/assets/icons/currency_bitcoin.svg

<svg xmlns="http://www.w3.org/2000/svg" width="24" height="24" viewBox="0 0 24 24" fill='currentColor'><path d="M16.56 11.57c.59-.69.94-1.59.94-2.57 0-1.86-1.27-3.43-3-3.87V3h-2v2h-2V3h-2v2h-3v2h2v10h-2v2h3v2h2v-2h2v2h2v-2c2.21 0 4-1.79 4-4 0-1.45-.78-2.73-1.94-3.43M9.5 7h4c1.1 0 2 .9 2 2s-.9 2-2 2h-4zm5 10h-5v-4h5c1.1 0 2 .9 2 2s-.9 2-2 2"/></svg>

<svg width="24" height="24" viewBox="0 0 24 24" xmlns="http://www.w3.org/2000/svg" fill='currentColor'><path d="M16.56 11.57C17.15 10.88 17.5 9.98 17.5 9C17.5 7.14 16.23 5.57 14.5 5.13V3H12.5V5H10.5V3H8.5V5H5.5V7H7.5V17H5.5V19H8.5V21H10.5V19H12.5V21H14.5V19C16.71 19 18.5 17.21 18.5 15C18.5 13.55 17.72 12.27 16.56 11.57ZM9.5 7H13.5C14.6 7 15.5 7.9 15.5 9C15.5 10.1 14.6 11 13.5 11H9.5V7ZM14.5 17H9.5V13H14.5C15.6 13 16.5 13.9 16.5 15C16.5 16.1 15.6 17 14.5 17Z"/></svg>
